X:1
T:Black Rock Pork
M:2/2
L:1/4
K:C
 G| c c c G/2G/2| A B c G| A A G E| D3| F/2F/2| F/2F/2 F E G/2G/2|\
 c c c G/2G/2| A/2A/2 A B c| c3||
